X:36
T:The Mountains of Pomeroy
R:March, Song
M:2/4
L:1/8
K:D
A2 F2|(AG) (FE )|D3E|B,2 (DB,)|A,2 (B,D)|D2 (EF)|G4 -|G2 FG|A2 F2|(AG) (FE )|D2 E2|B,2 (DB,)|
A,2 (B,D)|D3E|D4 -|D2 DE|F3E|D2 EF|G2 A2|A2 dB|A2 F2|D2 (EF)|
G4 -|G2 FG|A2 FF|(AG) (FE )|D2 E2|B,2 DB,|A,2 B,D|D3E|D4 -|D2 |]
